X:534
T: Dem Jger seine Lust (235), S. 507
N: T0422
O: Luxemburg
S: Singendes Volk, Esch-Alzette, 1937 posth.]
N: Reuland, fff Petry, 7.9.1913
R: Jgerlied]
M: 6/8
L: 1/8
K: G
 | G2GG2A | B2BBB
c | d2ddcB | B2AA2z |
G2GG2A | B2BBB
c | d2ddcB | B2AA2
B | d2Bdde | d2BA
Bc | d2cBdB | A2FD2
D | G2GA2G | BdBABA |
G2GAGA | BcBAG
A | B2Bc2e | d3c2
c | B2BA2A | G4z2

@@@ Tune index: 8588
